symbols/web/colorize/materialsymbolssharp/colorize_wght700fill1_40px.svg

<svg xmlns="http://www.w3.org/2000/svg" height="40" width="40"><path d="M3.833 36.167v-8.959L18.792 12.25l-2.875-2.792 3.666-3.583L23.208 9.5l6.667-6.75 7.375 7.375-6.792 6.708 3.625 3.625-3.541 3.584-2.792-2.834-14.958 14.959Zm4.375-4.375h2.875l14.084-14.084-2.875-2.875L8.208 28.917Z"/></svg>

<svg xmlns="http://www.w3.org/2000/svg" height="40" width="40"><path d="M3.833 36.167V27.208L18.792 12.25L15.917 9.458L19.583 5.875L23.208 9.5L29.875 2.75L37.25 10.125L30.458 16.833L34.083 20.458L30.542 24.042L27.75 21.208L12.792 36.167ZM8.208 31.792H11.083L25.167 17.708L22.292 14.833L8.208 28.917ZM27.375 14.5 31.792 10.083 29.917 8.208 25.5 12.625ZM27.375 14.5 25.5 12.625 29.542 8.583 31.417 10.458Z"/></svg>
